X:536
T:Bill Harte's
O:england
M:6/8
R:Jig
K:D
A2A e2e|fed eaa|A2A e2e|fed dBG|\
A2A e2e|fed efg|aba g2e|fed dBG::\
a2a g2g|fed efa|aba g2e|fed dBG|\
a2a g2g|fed efa|aba g2e|fed dBG:|


